wp-content/themes/quarkexpeditions/src/assets/svg/itinerary.svg

<svg class="icon icon-itinerary" width="33" height="32" viewBox="0 0 33 32" fill="none" xmlns="http://www.w3.org/2000/svg">
<circle cx="16.8" cy="16" r="16" fill="#ECEEF2"/>
<path d="M21.3435 9.84842H23.863V9.81288L21.3435 7.01331V9.84842Z" fill="#232933"/>
<path d="M12.6125 21.3754H21.05V21.9379H12.6125V21.3754Z" fill="#232933"/>
<path d="M16.0388 15.5686H16.1182L17.2078 14.0426H16.4754L16.0388 15.5686Z" fill="#232933"/>
<path d="M20.7807 10.4107V7H9.80005V25H23.8625V10.4107H20.7807ZM21.0501 20.5H12.6126V19.9375H21.0501V20.5ZM21.0501 19.0629H12.6126V18.5004H21.0501V19.0629ZM21.7662 13.1634C21.7662 13.6476 21.3803 14.042 20.9072 14.042H17.9001L16.4084 16.1312H15.2935L15.8909 14.042H13.1324C12.6588 14.042 12.2735 13.6483 12.2735 13.1634L11.8965 11.1744H12.6981L13.4153 12.1621H15.8953L15.2934 10.0567H16.4082L17.9117 12.1621H20.9066C21.3801 12.1621 21.7655 12.5559 21.7655 13.0408L21.7656 13.1633L21.7662 13.1634Z" fill="#232933"/>
<path d="M17.2078 12.1452L16.1182 10.6191H16.0388L16.4754 12.1452H17.2078Z" fill="#232933"/>
<path d="M20.9067 12.7247H13.1284L12.6306 12.0391L12.8309 13.1106C12.8359 13.3367 12.9687 13.479 13.1323 13.479H20.9067C21.0705 13.479 21.2032 13.3372 21.2032 13.1628V13.0396C21.2038 12.8665 21.0705 12.7247 20.9069 12.7247L20.9067 12.7247Z" fill="#232933"/>
</svg>

<svg class="icon icon-itinerary" width="33" height="32" fill="none" xmlns="http://www.w3.org/2000/svg"><circle cx="16.8" cy="16" r="16" fill="#ECEEF2"/><path d="M21.343 9.848h2.52v-.035l-2.52-2.8v2.835ZM12.613 21.375h8.437v.563h-8.438v-.563ZM16.039 15.569h.08l1.089-1.526h-.733l-.436 1.526Z" fill="#232933"/><path d="M20.78 10.41V7H9.8v18h14.063V10.41H20.78Zm.27 10.09h-8.437v-.563h8.437v.563Zm0-1.437h-8.437V18.5h8.437v.563Zm.716-5.9a.87.87 0 0 1-.859.879H17.9l-1.492 2.09h-1.115l.598-2.09h-2.759a.87.87 0 0 1-.858-.879l-.377-1.989h.801l.717.988h2.48l-.602-2.105h1.115l1.504 2.105h2.995a.87.87 0 0 1 .858.879v.122h.001Z" fill="#232933"/><path d="m17.208 12.145-1.09-1.526h-.08l.437 1.526h.733ZM20.907 12.725h-7.779l-.497-.686.2 1.072c.005.226.138.368.301.368h7.775c.163 0 .296-.142.296-.316v-.123c0-.173-.133-.315-.296-.315Z" fill="#232933"/></svg>
